X:1
T:God So Loved the World
T:William James Kirkpatrick
T:God So Loved the World
T:Public Domain
T:Public Domain
C:William James Kirkpatrick
Z:Public Domain
%%score ( 1 2 ) ( 3 4 )
L:1/8
M:3/4
K:A
V:1 treble 
V:2 treble 
V:3 bass 
V:4 bass 
V:1
 [CE]2 | [CE][CA] [CA]3 [CE] | [EG][DF] [DF]2 [DF]2 | [CE]3 [A,C] [G,B,][B,D] | [A,C]4 [CE]2 | %5
w: 1.~God|loved the world so|ten- der- ly His|on- ly Son He|gave, That|
w: 2.~Oh,|love that on- ly|God can feel, And|on- ly He can|show! Its|
w: 3.~Why|per- ish, then, ye|ran- somed ones? Why|slight the gra- cious|call? Why|
w: 4.~O|Sav- ior, melt these|hearts of ours, And|teach us to be-|lieve That|
 [CE][CA] [Ec]3 [^EB] | [FB][FA] [FA]2 [DF]2 | [B,E]3 [EG] [^DG][DF] | E4 ||[M:6/8]"^Refrain" E | %10
w: all who on His|name be- lieve Its|wond- rous power will|save.||
w: height and depth, Its|length and breadth Nor|heav’n nor earth can|know!||
w: turn from Him Whose|words pro- claim E-|ter- nal life to|all?||
w: who- so- ev- er|comes to Thee Shall|end- less life re-|ceive.||
 [CE]2 [CA] ([CA][DG])[EA] | [EB]3- [EB]2 E/E/ | [EB]2 [EB] (BA)[EB] | [Ec]3- [Ec]2 [CE] | %14
w: ||||
w: ||||
w: ||||
w: ||||
 [Ec]2 [Ec] [Ec][DB][Ec] | [Fe][Fd][Fd] [Fd]2 | [Ec]3 [EA]3 | [EB] [EB]2- [EB]2 | [CA]3 [FA]3 | %19
w: |||||
w: |||||
w: |||||
w: |||||
 [^EG] [EG]2- [EG]2 [EG] | [DF]2 [DF] [FA][EG][DF] | [DF][CE][CE] [CE]3 | [EA]3 [EB]3 | %23
w: ||||
w: ||||
w: ||||
w: ||||
 [Ec] [Ec]2- [Ec]2 [EA] | [FB][FB][FB] [EA]2 [EG] | [EA]6 |] %26
w: |||
w: |||
w: |||
w: |||
V:2
 x2 | x6 | x6 | x6 | x6 | x6 | x6 | x6 | E4 ||[M:6/8] E | x6 | x6 | x6 | x6 | x6 | x5 | x6 | x5 | %18
 x6 | x6 | x6 | x6 | x6 | x6 | x6 | x6 |] %26
V:3
 [A,,A,]2 | [A,,A,][A,,E,] [A,,E,]3 [A,,A,] | [D,A,][D,A,] [D,A,]2 [D,A,]2 | [E,A,]3 E, E,E, | %4
w: ~|~ ~ ~ ~|~ ~ ~ ~|~ ~ ~ ~|
 [A,,E,]4 [A,,A,]2 | [A,,A,][A,,A,] [A,,A,]3 [C,G,] | [D,F,][D,F,] [D,A,]2 [D,A,]2 | %7
w: ~ ~|~ ~ ~ ~|~ ~ ~ ~|
 [B,,G,]3 [B,,G,] [B,,B,][B,,A,] | [E,G,]4 ||[M:6/8] E, | [A,,A,]2 [A,,E,] (A,,B,,)[C,A,] | %11
w: ~ ~ For God|so|loved|world that He * gave|
 [E,G,]3- [E,G,]2 [E,G,]/[E,G,]/ | [E,G,]2 [E,G,] (G,F,)[E,G,] | A,3- A,2 A, | A,2 A, A,A,A, | %15
w: His * on- ly|Son, That who- * so-|ev- * er|eth in Him Should not|
 [D,A,][D,A,][D,A,] [D,A,]2 | [A,,A,]3 [C,A,]3 | [E,G,] [E,G,-]2 [E,G,]2 | [F,A,]3 [F,C]3 | %19
w: ish; That who- so-|ev- er|be- liev- eth|in Him|
 [C,C] [C,C]2- [C,C]2 [C,B,] | [D,A,]2 [D,A,] [D,A,][D,A,][D,A,] | [A,,A,][A,,A,][A,,A,] [A,,A,]3 | %22
w: Should not * per-|ish, but have ev- er-|last- ing life. *|
 [C,A,]3 [E,G,]3 | A, A,2- A,2 [A,C] | [D,D][D,D][D,D] [E,C]2 [E,B,] | [A,,A,C]6 |] %26
w: ||||
V:4
 x2 | x6 | x6 | x3 E, E,E, | x6 | x6 | x6 | x6 | x4 ||[M:6/8] E, | x6 | x6 | x6 | A,3- A,2 A, | %14
w: |||~ ~ ~||||||the||||be- * liev-|
 A,2 A, A,A,A, | x5 | x6 | x5 | x6 | x6 | x6 | x6 | x6 | x6 | x6 | x6 |] %26
w: per- ish, should not per-||||||||||||

